X:7990
T:Jim Crow Quadrilles (1). TLY.059
M:2/4
L:1/16
S:Wm.Tildesley,Swinton,Lancs.1860s.
R:Quadrille
O:England.
A:Lancashire.
N:Sign at start of tune and add end of B music. D.S at ebd if C musi
H:1860.
Z:vmp.Taz Tarry.
K:G
B2d2c2e2|B2d2 A4|BBBB c3c|B2A2 G4|B2d2c2e2|B2d2 A4|BBBB c3c|d2f2 [g4c4]|
|!
B4c4|B2B2 A4|BBBB c3c| B2A2 G4| B4 c4| BBBB A4|BBBB c2c2|B2A2 G4||!
[E4c4] [D4B4]| e2e2 d4| dddd e2dc| B2A2 G4| [E4c4] [D4B4]| e2e2 d4| dddd
 e3e| d2F2G4||
